svgs/solid/prescription-bottle-medical.svg

<svg xmlns="http://www.w3.org/2000/svg" viewBox="0 0 384 512"><!--! Font Awesome Pro 6.6.0 by @fontawesome - https://fontawesome.com License - https://fontawesome.com/license (Commercial License) Copyright 2024 Fonticons, Inc. --><path d="M0 32C0 14.3 14.3 0 32 0L352 0c17.7 0 32 14.3 32 32l0 32c0 17.7-14.3 32-32 32L32 96C14.3 96 0 81.7 0 64L0 32zm32 96l320 0 0 320c0 35.3-28.7 64-64 64L96 512c-35.3 0-64-28.7-64-64l0-320zM160 240l0 48-48 0c-8.8 0-16 7.2-16 16l0 32c0 8.8 7.2 16 16 16l48 0 0 48c0 8.8 7.2 16 16 16l32 0c8.8 0 16-7.2 16-16l0-48 48 0c8.8 0 16-7.2 16-16l0-32c0-8.8-7.2-16-16-16l-48 0 0-48c0-8.8-7.2-16-16-16l-32 0c-8.8 0-16 7.2-16 16z"/></svg>

<svg xmlns="http://www.w3.org/2000/svg" viewBox="0 0 384 512"><!--! Font Awesome Pro 6.5.2 by @fontawesome - https://fontawesome.com License - https://fontawesome.com/license (Commercial License) Copyright 2024 Fonticons, Inc. --><path d="M0 32C0 14.3 14.3 0 32 0H352c17.7 0 32 14.3 32 32V64c0 17.7-14.3 32-32 32H32C14.3 96 0 81.7 0 64V32zm32 96H352V448c0 35.3-28.7 64-64 64H96c-35.3 0-64-28.7-64-64V128zM160 240v48H112c-8.8 0-16 7.2-16 16v32c0 8.8 7.2 16 16 16h48v48c0 8.8 7.2 16 16 16h32c8.8 0 16-7.2 16-16V352h48c8.8 0 16-7.2 16-16V304c0-8.8-7.2-16-16-16H224V240c0-8.8-7.2-16-16-16H176c-8.8 0-16 7.2-16 16z"/></svg>
